X: 4
T: Jenny's Welcome To Charlie
R: reel
M: 4/4
L: 1/8
K: Ddor
|:e~a3 {b}age^f|~g2ag {b}gedg|e~a3{b}ag ed|ea{b}ag eddg||(3agaea {b}age^f|~g2ag gedB|GA(3Bcd ecdc|1AGcG EGGg:|2AGcG EGGc|


Tune 370	Setting 29604

